X: 155
T: You May Go on the Warpath
C: Teton Sioux band 1911-1914
N: Derived from sioux151a.krn
O: South Dakota, U.S.A.
N: Teton Sioux Music by Frances Densmore, 1918
Z: transcribed to **kern format by Craig Sapp
L: 1/8
M: 3/4
Q: 1/4=58
K: Bb clef=bass
%%linebreak <none>
F D D D (D/ C/) B, [I:setbarnb 2]| 
F D D< F (F/ D/) D | 
F D D< D (D/ C/) B, | 
C C C D D D | 
C CC2D C ||  
[M:2/4]B, B, (B,/ F,/) F, | 
B, B,- B, C | 
B,2B,2 | 
C B, F, F, | 
F,4 | 
F,4 |]  



